X:4204
T:Miller's Maggot, The
O:england
M:6/8
L:1/8
S:From Solas: Sunny Spells and Scattered Showers
R:Jig
K:G
G2A B2A | B2A BGE | G2A B2A | Bee dBA |
G2A B2A | B2A BGE | gfe dBA |1 Bee dBA :|2 Bee dBd |:
e2f- fge | d2B BAG | e2f ~g3 | aga bge |
e2f- fge | d2B BAG | A2B cBA |1 Bee dBd :|2 Bee dBA ||


